X:1
T:Arrousez vo violettes
T:Jean de Castro
T:Source : Livre de chansons à 3 parties---Paris---A.le Roy & R.Ballard---1575. Editor : André Vierendeels (27/01/16).
T:Notes : Original clefs : C1, C3, C4 Editorial accidentals above the staff
T:Arrousez vo violettes
T:©
T:©
T:©
T:©
T:©
T:©
T:©
C:Jean de Castro
Z:©
%%score [ 1 2 3 ]
L:1/8
Q:1/4=90
M:2/2
K:C
V:1 treble nm="Soprano" snm="S"
V:2 treble nm="Alto" snm="A"
V:3 treble-8 nm="Tenor" snm="T"
V:1
 z8 | z8 | z8 | G4 G4 | d4 d4 | e4 c4 | d4 B2 c2- | c2 B2 A4 | G4 D2 D2 | G4 G4 | A4 ^F4 | %11
w: |||Ar- rou-|sez vo|vy vo|vy vo vi-|* o- let-|tes, Ar- rou-|sez vo|vy vo|
 G2 G2 E4 | D2 G4 G2 | E2 C2 D4- |"^-natural" D2 G2 F2 D2 | z2 A4 G2 | F2 E2 A4- | A2 G2 G4- | %18
w: vi- o- let-|tes, ar- rou-|sez vo vi|_ o- let- tes,|ar- rou-|sez vo vi-||
 G4 ^F4 | G4 G2 G2 | c6 A2 | B4 c4 | d8 | G2 G2 c4 | z4 G2 G2 | c4 A4 | B6 B2 | c4 C2 C2 | G4 E4 | %29
w: * ol-|lier, la fil-|le d'un|jar- di-|nier,|la fil- le,|la fil-|le d'un|jar- di-|nier, le fil-|le d'un|
 F4 A4 | G2 c2 A4 | z2 G2 d2 d2 | c2 B2 A4 | B4 z2 G2 | A2 F2 E4 | F4 z2 F2 | E2 D2 C4 | D4 z2 A2 | %38
w: jar- di-|nier es- toit|ay- mant par|a- mou- ret-|te, par|a- mou- ret-|te,, par|a- mou- ret-|te, pre-|
 G2 E2 G4 | ^F4 A2 B2 | c4 G4 | B2 c2 d4 | A4 c2 d2 | e2 dc B4 | c2 c2 B2 d2 | c2 B2 A4- | %46
w: ten- dant fay-|re la cho-|set- te,|la cho- set-|te, la cho-|set- * * *|te, le jeu d'a-|mour trop bien|
 A2 G2 ^F4 | G4 z4 | z2 d2 c2 B2 | A2 G2 A2 d2- | d2 c3 B/A/ B2 | c8 | z8 | G4 G4 | c4 c4 | d6 cB | %56
w: _ luy hayt-|te,|le jeu d'a-|mour trop bien luy|_ hayt- * * *|te,||luy a|dict: mon|a- * *|
 A4 A4 | G4 G2 G2 | d4 d4 | e4 c4 | d4 B2 c2- | c2 B2 A4 | G4 D2 D2 | G4 G4 | A4 ^F4 | G2 G2 E4 | %66
w: * my|cher, ar- rou-|sez vo|vy vo|vy vo vi-|* o- let-|tes, ar- rou-|sez vo|vy vo|vi- o- let-|
 D2 G4 G2 | E2 C2 D4- | D2 G2 F2 D2 | z2 A4 G2 | F2 E2 A4- | A2 G2 G4- | G2 ^FE F4 | G8- | G8- | %75
w: tes, ar- rou-|sez vo vi-|* o- let- tes,|ar- rou-|sez vo vi-|* * o-||lier.|_|
 G8- | !fermata!G8 |] %77
w: ||
V:2
 C4 C4 | G4 G4 | A4 ^F4 | G4 E4 | ^F2 F2 G4 | C4 C2 C2 | G4 G2 A2- | A2 G2 ^F4 | G8 | z4 G,2 G,2 | %10
w: Ar- rou-|sez vo|vy vo|vy vo|vi- o- let-|tes, ar- rou-|sez vo vi-|* o- let-|tes,|ar- rou-|
 D4 D4 | E2 D2 C4- | C2 B,A, B,4 | C4 A,2 A,2 | D6 F2 | F2 F2 E4 | C2 C4 A,2 | B,4 C4 | A,6 A,2 | %19
w: sez vo|vi- o- let-||tes, ar- rou-|sez vo|vi- o- let-|tes, ar- rou-|sez vo|vi- ol-|
 B,8 | z4 C2 C2 | G4 E4 | ^F2 F2 G4 | z4 C2 C2 | G4 E4 | F6 F2 | G8- | G4 z4 | z8 | z4 F4 | C4 D4 | %31
w: lier,|la fil-|le d'un|jar- di- nier,|la fil-|le d'un|jar- di-|nier|_||es-|toit ay-|
 E4 z2 D2 | E2 G2 ^F4 | G4 z2 D2 |"^-natural" F2 D2 ^C4 | D4 z2 D2 | C2 D2 E4 | F2 F2 E2 C2 | %38
w: mant par|a- mou- ret-|te, par|a- mou- ret-|te, par|a- mou- ret-|te pre- ten- dant|
 E4 D4 |"^-natural" D2 E2 F4 | C4 E2 F2 | G4 D4 | F2 G2 A2 GF | E2 A3 G/F/ G2 | A2 A2 G2 F2 | %45
w: fay- re|la cho- set-|te, la cho-|set- te,|la cho- set- * *||te, le jeu d'a-|
 E2 D2 C4- | C2 B,2 A,4 | G,2 G2 F2 F2 | E2 D2 E4 | z2 G2 ^F4 | G2 E2 D4 | E4 E2 E2 | ^F4 G4 | %53
w: mour trop bien|_ luy hayt-|te, trop bien luy|hayt- * te,|luy hayt-||te, luy a|dict: mon|
 E4 E4 | C4 C2 C2 | G4 G4 | ^F4 F4 |"^#" G6 FE | ^F4 G4 | C4 C2 C2 | G4 G2 A2- |"^#" A2 G2 F4 | %62
w: a- my|cher, ar- rou-|sez vo|vi- o-|let- * *||tes, ar- rou-|sez vo vi-|* o- let-|
 G8 | z4 G,2 G,2 | D4 D4 | E2 E2 C4- | C2 B,A, B,4 | C4 A,2 A,2 | D6 F2 | F2 F2 E4 | C2 C4 A,2 | %71
w: tes,|ar- rou-|sez vo|vi- o- let-||tes, ar- rou-|sez vo|vi- o- *|lier, ar- rou-|
 B,4 C4 | A,6 A,2 | B,2 E4 D2 | E2 C4 B,2 | C2 G,2 C2 C2 | !fermata!B,8 |] %77
w: sez vo|vi- ol-|lier, ar- rou-|sez, ar- rou-|sez vo vi- o-|lier.|
V:3
 z8 | G4 G4 | d4 d4 | e4 c4 | d4 B4 | A8 | G4 z4 | D4 D4 | G8 | z8 | z8 | C4 C4 | G4 G4 | A4 ^F4 | %14
w: |Ar- rou-|sez vo|vy vo|vi- o-|let-|tes,|ar- rou-|sez,|||ar- rou-|sez vo|vi- o-|
 G4 D4 | d2 d2 c4 | A2 A2 F2 F2 | G4 C4 | D6 D2 | G8 | z8 | z8 | z4 G2 G2 | c4 A4 | G2 G2 c4 | z8 | %26
w: let- tes,|ar- rou- sez,|ar- rou- sez vo|vy vo|vi- ol-|lier,|||la fil-|le d'un|jar- di- nier,||
 A6 A2 | c4 A4 | B4 c4 | d4 z2 f2- | f2 e2 z2 d2 | c4 B4 | A2 G2 d4 | G8 | z8 | z4 D4 | A2 B2 A4 | %37
w: la fil-|le d'un|jar- di-|nier es-|* toit ay-|mant par|a- mou- ret-|te,||par|a- mou- ret-|
 D2 d2 c2 A2 | c4 G4 | z8 | A2 B2 c4 | G4 B2 c2 | d4 A4 | c2 d2 e4 | A4 z4 | z8 | z2 G2 D4 | %47
w: te pre- ten- dant|fay- re||la cho- set-|te, la cho-|set- te,|la cho- set-|te,||luy hayt-|
 G4 z2 d2 | c2 B2 A2 G2 | F2 E2 D4 | G4 G2 G2 | c4 c4 | d4 B4 | c8 | z8 | G4 G4 | d4 d4 | e4 c4 | %58
w: te, le|jeu d'a- mour trop|bien luy hayt-|te, luy a|dict: mon|a- my|cher,||ar- rou-|sez vo|vy vo|
 d4 B4 | A8 | G4 z4 | D4 D4 | G8 | z8 | z8 | C4 C4 | G4 G4 | A4 ^F4 | G4 D4 | d2 d2 c4 | %70
w: vi- o-|let-|tes,|ar- rou-|sez,|||ar- rou-|sez vo|vi- o-|let- tes,|ar- rou- sez|
 A2 A2 F2 F2 | G4 C4 | D6 D2 | G2 c4 B2 | c4 G4 | C6 C2 | !fermata!G8 |] %77
w: ar- rou- sez vo|vy vo|vi- ol-|lier, ar- rou-|sez vo|vi- ol-|lier.|

